X: 214
T: Good Morning to Meadow and Hill.
O: German
Q: "Allegretto."
%R: waltz
B: "The Everyday Song Book", 1927
F: http://www.library.pitt.edu/happybirthday/pdf/The_Everyday_Song_Book.pdf
Z: 2016 John Chambers <jc:trillian.mit.edu>
M: 3/4
L: 1/8
K: G
% - - - - - - - - - - - - - - - - - - - - - - - - - - - - -
D2 | G2 "^p"G2 A2 | B3 c B2 | (BA) (AG) (AB) | G4 "^cres."G2 | B2 B2 c2 |
w: 1.~Good morn-ing, good morn-ing to mead-*ow* and* Hil; Good morn-ing, good
w: 2.~Good morn-ing, good morn-ing to blos-*som* and* bee; Good morn-ing, good
w: 3.~Good morn-ing, good morn-ing to birds* of* the* glen; Good morn-ing, good
d3 e2 d2 | (dc) (cB) (cd) | B4 "^mf"d2 | "^>"d3 c c2 | c3 B B2 |
w: morn-ing to val-*ley* and* rill! How fra-grant the lil-ies, the
w: morn-ing to flow-*'ret* and* tree; A-long the green path-way, re-
w: morn-ing to rob-*in* and* wren, To voi-ces that war-ble in
A2 A2 A2 | B4 d2 | d3 c c2 | "^>"c3 B B2 | B2 A2 AB | G4 |]
w: soft blush-ing rose, How bright o'er the moun-tain the fair sun-light* glows!
w: splen-dent with dew, The shin-ing leaves whis-per, "Good morn-ing to* you!"
w: wood-land and grove, Good morn-ing, good morn-ing to all that I* love!
% - - - - - - - - - - - - - - - - - - - - - - - - - - - - -
